X:1
T:The Greenland Whale
M:4/4
L:1/8
K:C
 DD| GG A2 B2 DE| F2G-F D2A-B| c2 c2 ddc-B| A6|(3A3.99999962500005/5.99999925000009A3.99999962500005/5.99999925000009B3.99999962500005/5.99999925000009A3.99999962500005/5.99999925000009B3.99999962500005/5.99999925000009c3.99999962500005/5.99999925000009|\
 d2 d3/2- B/2c-BG-B| c2 A2 G2 GA| B2 B2c-BA-G| A2 D2 D2| G3/2 A/2|\
 B2 d2c-A ^F2| G4 z2||

